src/image/icons8-google-old.svg

<svg xmlns="http://www.w3.org/2000/svg"  viewBox="0 0 50 50" width="20px" height="20px"><path d="M 26.105469 2 C 19.824219 2 16.15625 4.222656 14.207031 6.890625 C 12.257813 9.558594 12 12.519531 12 14 C 12 16.242188 12.714844 18.703125 14.34375 20.65625 C 15.972656 22.613281 18.558594 24 22 24 C 22.136719 24 22.410156 23.992188 22.589844 24 C 22.476563 24.359375 22.332031 24.6875 22.332031 25.136719 C 22.332031 26.425781 22.691406 27.371094 23.171875 28.1875 C 20.070313 28.382813 16.882813 29.019531 14.238281 30.453125 C 11.074219 32.167969 8.65625 34.980469 8.65625 38.753906 C 8.65625 40.273438 9.273438 42.550781 11.25 44.511719 C 13.226563 46.472656 16.539063 48 21.695313 48 C 33.429688 48 37.445313 40.589844 37.445313 36.089844 C 37.445313 31.996094 35.191406 29.46875 33.144531 27.730469 C 32.121094 26.859375 31.140625 26.144531 30.484375 25.503906 C 29.824219 24.863281 29.550781 24.394531 29.550781 23.910156 C 29.550781 23.277344 29.769531 22.851563 30.234375 22.300781 C 30.699219 21.753906 31.417969 21.160156 32.191406 20.417969 C 33.738281 18.929688 35.441406 16.707031 35.441406 12.890625 C 35.441406 10.1875 34.527344 8.261719 33.425781 7 L 34 7 C 34.265625 7 34.519531 6.894531 34.707031 6.707031 L 37.707031 3.707031 C 37.992188 3.421875 38.078125 2.992188 37.921875 2.617188 C 37.769531 2.242188 37.40625 2 37 2 Z M 26.105469 4 L 34.585938 4 L 33.585938 5 L 30 5 C 29.453125 5.007813 29.015625 5.453125 29.015625 6 C 29.015625 6.546875 29.453125 6.992188 30 7 C 29.957031 7 30.289063 7.050781 30.648438 7.242188 C 31.007813 7.429688 31.445313 7.742188 31.859375 8.195313 C 32.683594 9.101563 33.441406 10.550781 33.441406 12.890625 C 33.441406 16.152344 32.203125 17.628906 30.800781 18.976563 C 30.101563 19.648438 29.351563 20.257813 28.710938 21.011719 C 28.070313 21.761719 27.550781 22.734375 27.550781 23.910156 C 27.550781 25.15625 28.265625 26.140625 29.089844 26.9375 C 29.910156 27.734375 30.902344 28.449219 31.847656 29.253906 C 33.746094 30.867188 35.445313 32.699219 35.445313 36.089844 C 35.445313 39.425781 32.605469 46 21.695313 46 C 16.925781 46 14.21875 44.636719 12.65625 43.089844 C 11.097656 41.542969 10.65625 39.699219 10.65625 38.753906 C 10.65625 35.808594 12.429688 33.707031 15.191406 32.210938 C 15.667969 31.953125 16.277344 31.847656 16.796875 31.636719 C 16.46875 31.914063 15.996094 32.140625 15.738281 32.445313 C 14.394531 34.027344 14.035156 35.785156 14.03125 37.03125 C 14.011719 39.921875 15.886719 41.964844 18.144531 43 C 20.402344 44.03125 23.082031 44.242188 25.296875 43.796875 C 27.953125 43.265625 29.6875 42.039063 30.695313 40.683594 C 31.703125 39.324219 32 37.902344 32 36.902344 C 32 32.792969 28.382813 30.472656 26.679688 29.199219 C 26.570313 29.113281 26.441406 29.054688 26.308594 29.023438 C 26.199219 29 26.109375 29.023438 26 29.003906 C 26 28.738281 25.894531 28.480469 25.707031 28.292969 C 24.765625 27.351563 24.332031 26.851563 24.332031 25.136719 C 24.332031 24.910156 24.453125 24.449219 24.59375 24.089844 C 24.738281 23.730469 24.875 23.484375 24.875 23.484375 C 25.054688 23.15625 25.039063 22.753906 24.832031 22.445313 C 24.625 22.132813 24.257813 21.964844 23.886719 22.003906 C 23.394531 22.0625 22.664063 22 22 22 C 19.074219 22 17.160156 20.910156 15.878906 19.375 C 14.601563 17.84375 14 15.808594 14 14 C 14 12.761719 14.246094 10.222656 15.820313 8.070313 C 17.394531 5.917969 20.28125 4 26.105469 4 Z M 22.566406 5 C 20.355469 5 18.859375 6.277344 18.113281 7.640625 C 17.367188 9.003906 17.203125 10.417969 17.203125 11.25 C 17.203125 13.71875 17.964844 16.085938 19.222656 17.890625 C 20.480469 19.699219 22.304688 21 24.40625 21 C 26.964844 21 28.476563 19.503906 29.058594 18.058594 C 29.347656 17.335938 29.457031 16.636719 29.5 16.082031 C 29.546875 15.527344 29.527344 15.03125 29.527344 15.035156 C 29.527344 13.871094 29.226563 11.585938 28.257813 9.390625 C 27.773438 8.292969 27.117188 7.222656 26.183594 6.390625 C 25.25 5.5625 24.011719 5 22.566406 5 Z M 22.566406 7 C 23.515625 7 24.21875 7.324219 24.855469 7.886719 C 25.488281 8.449219 26.023438 9.277344 26.425781 10.199219 C 27.238281 12.035156 27.527344 14.273438 27.527344 15.035156 C 27.527344 15.265625 27.542969 15.5 27.507813 15.921875 C 27.472656 16.339844 27.386719 16.851563 27.203125 17.3125 C 26.828125 18.238281 26.285156 19 24.40625 19 C 23.144531 19 21.863281 18.183594 20.863281 16.75 C 19.863281 15.3125 19.203125 13.300781 19.203125 11.25 C 19.203125 10.738281 19.359375 9.527344 19.867188 8.601563 C 20.375 7.675781 21.058594 7 22.566406 7 Z M 24.929688 30.910156 C 25.195313 30.917969 25.460938 30.933594 25.6875 30.96875 C 27.492188 32.3125 30 34.097656 30 36.902344 C 30 37.488281 29.800781 38.53125 29.089844 39.488281 C 28.378906 40.445313 27.160156 41.386719 24.902344 41.839844 C 24.902344 41.835938 24.902344 41.835938 24.902344 41.839844 C 23.136719 42.191406 20.765625 41.996094 18.976563 41.175781 C 17.1875 40.359375 16.015625 39.113281 16.03125 37.042969 C 16.035156 36.167969 16.28125 34.898438 17.265625 33.738281 C 18.246094 32.578125 20.003906 31.457031 23.269531 30.988281 C 23.28125 30.988281 23.289063 30.984375 23.296875 30.984375 C 23.296875 30.984375 24.128906 30.894531 24.929688 30.910156 Z"/></svg>

<svg xmlns="http://www.w3.org/2000/svg" xmlns:xlink="http://www.w3.org/1999/xlink" viewBox="0,0,256,256" width="20px" height="20px"><g fill="#ffffff" fill-rule="nonzero" stroke="none" stroke-width="1" stroke-linecap="butt" stroke-linejoin="miter" stroke-miterlimit="10" stroke-dasharray="" stroke-dashoffset="0" font-family="none" font-weight="none" font-size="none" text-anchor="none" style="mix-blend-mode: normal"><g transform="scale(5.12,5.12)"><path d="M26.10547,2c-6.28125,0 -9.94922,2.22266 -11.89844,4.89063c-1.94922,2.66797 -2.20703,5.62891 -2.20703,7.10938c0,2.24219 0.71484,4.70313 2.34375,6.65625c1.62891,1.95703 4.21484,3.34375 7.65625,3.34375c0.13672,0 0.41016,-0.00781 0.58984,0c-0.11328,0.35938 -0.25781,0.6875 -0.25781,1.13672c0,1.28906 0.35938,2.23438 0.83984,3.05078c-3.10156,0.19531 -6.28906,0.83203 -8.93359,2.26563c-3.16406,1.71484 -5.58203,4.52734 -5.58203,8.30078c0,1.51953 0.61719,3.79688 2.59375,5.75781c1.97656,1.96094 5.28906,3.48828 10.44531,3.48828c11.73438,0 15.75,-7.41016 15.75,-11.91016c0,-4.09375 -2.25391,-6.62109 -4.30078,-8.35937c-1.02344,-0.87109 -2.00391,-1.58594 -2.66016,-2.22656c-0.66016,-0.64062 -0.93359,-1.10937 -0.93359,-1.59375c0,-0.63281 0.21875,-1.05859 0.68359,-1.60937c0.46484,-0.54687 1.18359,-1.14062 1.95703,-1.88281c1.54688,-1.48828 3.25,-3.71094 3.25,-7.52734c0,-2.70312 -0.91406,-4.62891 -2.01562,-5.89062h0.57422c0.26563,0 0.51953,-0.10547 0.70703,-0.29297l3,-3c0.28516,-0.28516 0.37109,-0.71484 0.21484,-1.08984c-0.15234,-0.375 -0.51562,-0.61719 -0.92187,-0.61719zM26.10547,4h8.48047l-1,1h-3.58594c-0.54687,0.00781 -0.98437,0.45313 -0.98437,1c0,0.54688 0.4375,0.99219 0.98438,1c-0.04297,0 0.28906,0.05078 0.64844,0.24219c0.35938,0.1875 0.79688,0.5 1.21094,0.95313c0.82422,0.90625 1.58203,2.35547 1.58203,4.69531c0,3.26172 -1.23828,4.73828 -2.64062,6.08594c-0.69922,0.67188 -1.44922,1.28125 -2.08984,2.03516c-0.64062,0.75 -1.16016,1.72266 -1.16016,2.89844c0,1.24609 0.71484,2.23047 1.53906,3.02734c0.82031,0.79688 1.8125,1.51172 2.75781,2.31641c1.89844,1.61328 3.59766,3.44531 3.59766,6.83594c0,3.33594 -2.83984,9.91016 -13.75,9.91016c-4.76953,0 -7.47656,-1.36328 -9.03906,-2.91016c-1.55859,-1.54687 -2,-3.39062 -2,-4.33594c0,-2.94531 1.77344,-5.04687 4.53516,-6.54297c0.47656,-0.25781 1.08594,-0.36328 1.60547,-0.57422c-0.32812,0.27734 -0.80078,0.50391 -1.05859,0.80859c-1.34375,1.58203 -1.70312,3.33984 -1.70703,4.58594c-0.01953,2.89063 1.85547,4.93359 4.11328,5.96875c2.25781,1.03125 4.9375,1.24219 7.15234,0.79688c2.65625,-0.53125 4.39063,-1.75781 5.39844,-3.11328c1.00781,-1.35937 1.30469,-2.78125 1.30469,-3.78125c0,-4.10937 -3.61719,-6.42969 -5.32031,-7.70312c-0.10937,-0.08594 -0.23828,-0.14453 -0.37109,-0.17578c-0.10937,-0.02344 -0.19922,0 -0.30859,-0.01953c0,-0.26562 -0.10547,-0.52344 -0.29297,-0.71094c-0.94141,-0.94141 -1.375,-1.44141 -1.375,-3.15625c0,-0.22656 0.12109,-0.6875 0.26172,-1.04687c0.14453,-0.35937 0.28125,-0.60547 0.28125,-0.60547c0.17969,-0.32812 0.16406,-0.73047 -0.04297,-1.03906c-0.20703,-0.3125 -0.57422,-0.48047 -0.94531,-0.44141c-0.49219,0.05859 -1.22266,-0.00391 -1.88672,-0.00391c-2.92578,0 -4.83984,-1.08984 -6.12109,-2.625c-1.27734,-1.53125 -1.87891,-3.56641 -1.87891,-5.375c0,-1.23828 0.24609,-3.77734 1.82031,-5.92969c1.57422,-2.15234 4.46094,-4.07031 10.28516,-4.07031zM22.56641,5c-2.21094,0 -3.70703,1.27734 -4.45312,2.64063c-0.74609,1.36328 -0.91016,2.77734 -0.91016,3.60938c0,2.46875 0.76172,4.83594 2.01953,6.64063c1.25781,1.80859 3.08203,3.10938 5.18359,3.10938c2.55859,0 4.07031,-1.49609 4.65234,-2.94141c0.28906,-0.72266 0.39844,-1.42187 0.44141,-1.97656c0.04688,-0.55469 0.02734,-1.05078 0.02734,-1.04687c0,-1.16406 -0.30078,-3.44922 -1.26953,-5.64453c-0.48437,-1.09766 -1.14062,-2.16797 -2.07422,-3c-0.93359,-0.82812 -2.17187,-1.39062 -3.61719,-1.39062zM22.56641,7c0.94922,0 1.65234,0.32422 2.28906,0.88672c0.63281,0.5625 1.16797,1.39062 1.57031,2.3125c0.8125,1.83594 1.10156,4.07422 1.10156,4.83594c0,0.23047 0.01563,0.46484 -0.01953,0.88672c-0.03516,0.41797 -0.12109,0.92969 -0.30469,1.39063c-0.375,0.92578 -0.91797,1.6875 -2.79687,1.6875c-1.26172,0 -2.54297,-0.81641 -3.54297,-2.25c-1,-1.4375 -1.66016,-3.44922 -1.66016,-5.5c0,-0.51172 0.15625,-1.72266 0.66406,-2.64844c0.50781,-0.92578 1.19141,-1.60156 2.69922,-1.60156zM24.92969,30.91016c0.26563,0.00781 0.53125,0.02344 0.75781,0.05859c1.80469,1.34375 4.3125,3.12891 4.3125,5.93359c0,0.58594 -0.19922,1.62891 -0.91016,2.58594c-0.71094,0.95703 -1.92969,1.89844 -4.1875,2.35156c0,-0.00391 0,-0.00391 0,0c-1.76562,0.35156 -4.13672,0.15625 -5.92578,-0.66406c-1.78906,-0.81641 -2.96094,-2.0625 -2.94531,-4.13281c0.00391,-0.875 0.25,-2.14453 1.23438,-3.30469c0.98047,-1.16016 2.73828,-2.28125 6.00391,-2.75c0.01172,0 0.01953,-0.00391 0.02734,-0.00391c0,0 0.83203,-0.08984 1.63281,-0.07422z"></path></g></g></svg>
